svg/white/slr.svg

<svg height="32" viewBox="0 0 32 32" width="32" xmlns="http://www.w3.org/2000/svg"><path d="m16 32c-8.836556 0-16-7.163444-16-16s7.163444-16 16-16 16 7.163444 16 16-7.163444 16-16 16zm-4.0786958-10-1.5129411 1.5758726c1.0472339 1.3333333 2.7905988 2.4241274 4.422194 2.4241274 3.9913135 0 5.935135-2.6523252 5.935135-5.6345038 0-2.8387642-1.4558414-4.4159022-4.3173086-5.6775283-2.3342056-1.0321628-3.3636211-1.9209111-3.3636211-3.7275123 0-1.31899193.8795792-2.89612996 3.1878672-2.89612996 1.5323793 0 2.1953035.86428345 2.7472678 1.20847832l1.3967167-1.45481387c-.5819316-.72719604-2.3366354-1.81799009-4.0686614-1.81799009-3.2878931 0-5.4718575 2.23642307-5.4718575 5.2472846 0 2.7240325 1.7069183 4.3585363 4.4679547 5.4767479 2.2839903 1.0034799 3.1878673 2.0356427 3.1878673 3.842244 0 1.949594-1.3051952 3.2972688-3.539375 3.2972688-1.5060567 0-2.9550137-1.4999473-3.071238-1.8635453zm1.862019-10.3030686s5.8185057-.8486766 5.7022814 4.1214805c0 0 .6981559.2421175 1.3963118 1.5754508 0 0 1.6291654-8.6061373-7.2152225-7.1513234 0 0-.2324486.727196.1166293 1.4543921zm3.9564867 7.8789412s-6.3984124 1.3333333-6.2088898-4.4331962c0 0-.664139-.3311189-1.19788-1.7441738.0020248 0-2.71770547 9.2076347 7.3529098 7.9093114 0 0 .4049628-.8832648.05386-1.7319414z" fill="#fff" fill-rule="evenodd"/></svg>

<svg xmlns="http://www.w3.org/2000/svg" width="32" height="32" viewBox="0 0 32 32">
  <path fill="#FFF" fill-rule="evenodd" d="M16,32 C7.163444,32 0,24.836556 0,16 C0,7.163444 7.163444,0 16,0 C24.836556,0 32,7.163444 32,16 C32,24.836556 24.836556,32 16,32 Z M11.9213042,22 L10.4083631,23.5758726 C11.455597,24.9092059 13.1989619,26 14.8305571,26 C18.8218706,26 20.7656921,23.3476748 20.7656921,20.3654962 C20.7656921,17.526732 19.3098507,15.949594 16.4483835,14.6879679 C14.1141779,13.6558051 13.0847624,12.7670568 13.0847624,10.9604556 C13.0847624,9.64146367 13.9643416,8.06432564 16.2726296,8.06432564 C17.8050089,8.06432564 18.4679331,8.92860909 19.0198974,9.27280396 L20.4166141,7.81799009 C19.8346825,7.09079405 18.0799787,6 16.3479527,6 C13.0600596,6 10.8760952,8.23642307 10.8760952,11.2472846 C10.8760952,13.9713171 12.5830135,15.6058209 15.3440499,16.7240325 C17.6280402,17.7275124 18.5319172,18.7596752 18.5319172,20.5662765 C18.5319172,22.5158705 17.226722,23.8635453 14.9925422,23.8635453 C13.4864855,23.8635453 12.0375285,22.363598 11.9213042,22 Z M13.7833232,11.6969314 C13.7833232,11.6969314 19.6018289,10.8482548 19.4856046,15.8184119 C19.4856046,15.8184119 20.1837605,16.0605294 20.8819164,17.3938627 C20.8819164,17.3938627 22.5110818,8.7877254 13.6666939,10.2425393 C13.6666939,10.2425393 13.4342453,10.9697353 13.7833232,11.6969314 Z M17.7398099,19.5758726 C17.7398099,19.5758726 11.3413975,20.9092059 11.5309201,15.1426764 C11.5309201,15.1426764 10.8667811,14.8115575 10.3330401,13.3985026 C10.3350649,13.3985026 7.61533463,22.6061373 17.6859499,21.307814 C17.6859499,21.307814 18.0909127,20.4245492 17.7398099,19.5758726 Z"/>
</svg>
